flaticon/user-interface/right-alignment-3.svg

<svg xmlns="http://www.w3.org/2000/svg" width="32" height="32" viewBox="0 0 24 24">
    <path d="M 0 0.199219 L 0 23.800781 L 24 23.800781 L 24 0.199219 Z M 23.199219 23 L 0.800781 23 L 0.800781 1 L 23.199219 1 Z M 23.199219 23"/>
    <path d="M10.398438 5.398438L18.800781 5.398438C19.019531 5.398438 19.199219 5.222656 19.199219 5 19.199219 4.777344 19.019531 4.601562 18.800781 4.601562L10.398438 4.601562C10.179688 4.601562 10 4.777344 10 5 10 5.222656 10.179688 5.398438 10.398438 5.398438zM18.800781 7.398438L13.601562 7.398438C13.378906 7.398438 13.199219 7.578125 13.199219 7.800781 13.199219 8.019531 13.378906 8.199219 13.601562 8.199219L18.800781 8.199219C19.019531 8.199219 19.199219 8.019531 19.199219 7.800781 19.199219 7.578125 19.019531 7.398438 18.800781 7.398438zM10.398438 11L18.800781 11C19.019531 11 19.199219 10.820312 19.199219 10.601562 19.199219 10.378906 19.019531 10.199219 18.800781 10.199219L10.398438 10.199219C10.179688 10.199219 10 10.378906 10 10.601562 10 10.820312 10.179688 11 10.398438 11zM18.800781 13L12 13C11.777344 13 11.601562 13.179688 11.601562 13.398438 11.601562 13.621094 11.777344 13.800781 12 13.800781L18.800781 13.800781C19.019531 13.800781 19.199219 13.621094 19.199219 13.398438 19.199219 13.179688 19.019531 13 18.800781 13zM18.800781 15.800781L13.601562 15.800781C13.378906 15.800781 13.199219 15.980469 13.199219 16.199219 13.199219 16.421875 13.378906 16.601562 13.601562 16.601562L18.800781 16.601562C19.019531 16.601562 19.199219 16.421875 19.199219 16.199219 19.199219 15.980469 19.019531 15.800781 18.800781 15.800781zM10.398438 19.398438L18.800781 19.398438C19.019531 19.398438 19.199219 19.222656 19.199219 19 19.199219 18.777344 19.019531 18.601562 18.800781 18.601562L10.398438 18.601562C10.179688 18.601562 10 18.777344 10 19 10 19.222656 10.179688 19.398438 10.398438 19.398438zM7.601562 19.398438C7.820312 19.398438 8 19.222656 8 19L8 5C8 4.777344 7.820312 4.601562 7.601562 4.601562 7.378906 4.601562 7.199219 4.777344 7.199219 5L7.199219 19C7.199219 19.222656 7.378906 19.398438 7.601562 19.398438zM2.972656 16.527344C3.039062 16.578125 3.121094 16.601562 3.199219 16.601562 3.324219 16.601562 3.449219 16.539062 3.527344 16.429688L6.328125 12.429688C6.328125 12.425781 6.328125 12.421875 6.332031 12.421875 6.347656 12.394531 6.355469 12.367188 6.367188 12.335938 6.375 12.316406 6.386719 12.296875 6.390625 12.277344 6.394531 12.25 6.390625 12.226562 6.390625 12.199219 6.390625 12.175781 6.394531 12.148438 6.390625 12.125 6.386719 12.101562 6.375 12.085938 6.367188 12.0625 6.355469 12.035156 6.347656 12.007812 6.332031 11.980469 6.328125 11.976562 6.328125 11.972656 6.328125 11.972656L3.527344 7.972656C3.402344 7.789062 3.152344 7.746094 2.96875 7.875 2.789062 8 2.746094 8.25 2.871094 8.429688L5.511719 12.203125 2.871094 15.972656C2.746094 16.152344 2.789062 16.402344 2.972656 16.527344zM2.972656 16.527344"/>
</svg>

<svg xmlns="http://www.w3.org/2000/svg" width="32" height="32" viewBox="0 0 24 24">
    <path d="M0 .2v23.6h24V.2zM23.2 23H.8V1h22.4zm0 0"/>
    <path d="M10.398 5.398h8.403a.398.398 0 1 0 0-.796h-8.403a.398.398 0 1 0 0 .796zm0 0M18.8 7.398h-5.198a.401.401 0 0 0 0 .8L18.8 8.2a.4.4 0 0 0 0-.8zm0 0M10.398 11h8.403a.4.4 0 0 0 0-.8h-8.403a.401.401 0 0 0 0 .8zm0 0M18.8 13H12a.398.398 0 0 0-.398.398c0 .223.175.403.398.403h6.8a.401.401 0 0 0 0-.801zm0 0M18.8 15.8h-5.198a.401.401 0 1 0 0 .802H18.8a.401.401 0 0 0 0-.801zm0 0M10.398 19.398h8.403a.398.398 0 1 0 0-.796h-8.403a.398.398 0 1 0 0 .796zm0 0M7.602 19.398A.398.398 0 0 0 8 19V5a.398.398 0 0 0-.398-.398.398.398 0 0 0-.403.398v14c0 .223.18.398.403.398zm0 0M2.973 16.527c.066.051.148.075.226.075.125 0 .25-.063.328-.172l2.801-4c0-.004 0-.008.004-.008.016-.027.023-.055.035-.086.008-.02.02-.04.024-.059.004-.027 0-.05 0-.078 0-.023.004-.05 0-.074-.004-.023-.016-.04-.024-.063-.012-.027-.02-.054-.035-.082-.004-.003-.004-.007-.004-.007l-2.8-4a.4.4 0 1 0-.656.457l2.64 3.773-2.64 3.77a.397.397 0 0 0 .1.554zm0 0"/>
</svg>
